dist/svg/device2.svg

<!-- Generated by Trend Micro Style Portal -->
<svg version="1.1" xmlns="http://www.w3.org/2000/svg" width="16" height="16" viewBox="0 0 16 16">
  <title>device2</title>
  <path fill="rgb(34,34,34)" d="M2 2v7h5v5h-4.5c-0 0-0 0-0 0-0.276 0-0.5-0.224-0.5-0.5 0-0.184 0.1-0.345 0.248-0.432l0.002-0.001 3.75-1.567v-0.5h-5c-0.552 0-1-0.448-1-1v0-9c0-0.552 0.448-1 1-1v0h12c0.552 0 1 0.448 1 1v0 1h-12zM16 4v11c0 0.552-0.448 1-1 1v0h-6c-0.552 0-1-0.448-1-1v0-11c0-0.552 0.448-1 1-1v0h6c0.552 0 1 0.448 1 1v0zM13 14h-2v1h2zM15 5h-6v8h6v-8z"></path>
</svg>

<svg width="16" height="16" viewBox="0 0 16 16" fill="rgb(34, 34, 34)" xmlns="http://www.w3.org/2000/svg"><title>device2</title><path d="M2 2V9H7V14H2.5C2.224 14 2 13.776 2 13.5C2 13.316 2.1 13.155 2.248 13.068L2.25 13.067L6 11.5V11H1C0.448 11 0 10.552 0 10V1C0 0.448 0.448 0 1 0H13C13.552 0 14 0.448 14 1V2H2ZM16 4V15C16 15.552 15.552 16 15 16H9C8.448 16 8 15.552 8 15V4C8 3.448 8.448 3 9 3H15C15.552 3 16 3.448 16 4ZM13 14H11V15H13V14ZM15 5H9V13H15V5Z" fill="rgb(34, 34, 34)" fill-opacity="1.00"/></svg>
